X: 139
T:Ploughman,The. JaW.139
M:C
Q:150
C:"Clarinetto Primo"
S:James Winder Ms, Lancashire, 1835-41
R:misc.
O:England
A:Wyresdale,Lancashire
H:1/8
Z:vmp.Chris Partington, Aug 2004
K:C
c>d|e2e>ee2fe|edefg2ab|c'gfe fegc|e2d>dd2c>d|!
e2e>ee2fe|edefg2ab|c'bag bag^f|g6dc|!
Begb bag^f|g4z2gf|ega_b c'agf|agfef2ga|!
agfe fedc|cBdBG2gg|e'd'c'b babc'|gagfe2fg|!
a2AAd2ef|g2GGc2de|fdef ecde|cBdBG2z2|!
cdee cdee|edef g2G2|cdee cdee|edefg2gg|!
c'aac' bgge|fffa agze|fedc cagf|e2d2c2|]
